X:1
T:Dag, Schatteboutje!
T: Laukens Music Productions  
T:Foxtrot
T:DAG, SCHATTEBOUTJE!
T:Arr. H. Laukens 
C:Traditional
Z:All Rights Reserved
L:1/4
Q:1/4=190
M:2/2
K:F
V:1 treble nm="MusicXML Part"
%%MIDI channel 2
%%MIDI program 0
%%MIDI control 7 102
%%MIDI control 10 64
V:1
S"F" A4 |"Dm" G F E D |"Gm7" B4 |"C7" A G F E |"D7" c4 |"Gm" B A"C7" G ^G |"F" A4- |"Cm7" A4"C7" | %8
"F" A4 |"Dm" G F E D |"Gm" B4 |"C7" A G F E |"D7" c4 |"Gm7" B A"C7" G A |"F" F4- |"F7" F z z2 | %16
"Bb" B B B B |"Bbm" B B F G |"F" A4 | F4 |"Bb" B B B B |"Bbm" B B F G |"G7" A4 |"C7" G4 |"F" A4 | %25
"Dm" G F E D |"Gm7" B4 |"C7" A G F E |"D7" c4 |"Gm7" B A"C7" G A |"F" F4-"Bbm" |1,2,3 %31
"F"!fine! F3 A/B/ ||2"F" c A"Dm" F G/A/ ||"Gm7" B G"C7" E F/G/ |"F" A F"G7" E F |"C7" G3 A/B/ | %36
"F" c c"Fm7" d d |"C" e c G3/2"Cm" G/ |"D7" A c"G7" c =B |"C" c3 c/c/ |"Bb" B c"C7" B2 | %41
"F" A c A c/c/ |"Bb" B c"C7" B3/2 c/ |"F" A c A c/c/ |"C" c c"G7" d d |"C" e3"Cm" G | %46
"D7" A c"G7" c =B |"C" c4S |] %48

